outputs/icons/alert/auto_delete_round.svg

<svg xmlns="http://www.w3.org/2000/svg" width="1200" height="1200" fill="none"><g fill="#000" clip-path="url(#a)"><path d="M700 200c27.5 0 50-22.5 50-50s-22.5-50-50-50H575l-35.5-35.5c-9-9-22-14.5-35-14.5h-209c-13 0-26 5.5-35 14.5L225 100H100c-27.5 0-50 22.5-50 50s22.5 50 50 50zM750 637.5c0-20.5 17-37.5 37.5-37.5s37.5 17 37.5 37.5V810l112 66c18 10.5 23.5 34 12 51-10.5 15.5-31.5 20.5-48 11l-126-73.5c-15.5-9-25-25-25-43z"/><path fill-rule="evenodd" d="M800 450c-35 0-68.5 5-100 14.5V250H100v600c0 55 45 100 100 100h284c56 118 176.5 200 316 200 193.5 0 350-156.5 350-350S993.5 450 800 450m0 600c-138 0-250-112-250-250s112-250 250-250 250 112 250 250-112 250-250 250"/></g><defs><clipPath id="a"><path fill="#fff" d="M0 0h1200v1200H0z"/></clipPath></defs></svg>

<svg width="1200" height="1200" viewBox="0 0 1200 1200" fill="none" xmlns="http://www.w3.org/2000/svg"><g clip-path="url(#clip0_223_2053)"><path fill-rule="evenodd" d="M700 200C727.5 200 750 177.5 750 150C750 122.5 727.5 100 700 100H575L539.5 64.5C530.5 55.5 517.5 50 504.5 50H295.5C282.5 50 269.5 55.5 260.5 64.5L225 100H100C72.5 100 50 122.5 50 150C50 177.5 72.5 200 100 200H700ZM800 450C765 450 731.5 455 700 464.5V250H100V850C100 905 145 950 200 950H484C540 1068 660.5 1150 800 1150C993.5 1150 1150 993.5 1150 800C1150 606.5 993.5 450 800 450ZM800 1050C662 1050 550 938 550 800C550 662 662 550 800 550C938 550 1050 662 1050 800C1050 938 938 1050 800 1050ZM750 637.5C750 617 767 600 787.5 600C808 600 825 617 825 637.5V810L937 876C955 886.5 960.5 910 949 927C938.5 942.5 917.5 947.5 901 938L775 864.5C759.5 855.5 750 839.5 750 821.5V637.5Z" fill="#1D1E23"/></g><defs><clipPath id="clip0_223_2053"><path width="24" fill="white" d="M0 0H1200V1200H0V0z"/></clipPath></defs></svg>
